other/agape.svg

<svg viewBox="0 0 48 48" xmlns="http://www.w3.org/2000/svg">
    <style>
        .b{fill:none;stroke:#FFFFFF;stroke-linecap:round;stroke-linejoin:round}
    </style>
    <path class="b" d="M30.5,10.25c-0.2999878-0.9099731-0.710022-1.7600098-1.2199707-2.5200195  C28.0100098,5.789978,26.1400146,4.3599854,24,3.6300049c-2.0700073-0.7399902-4.3900146-0.8099976-6.6400146-0.0800171  c-2.25,0.7300415-4.0700073,2.1500244-5.3299561,3.9500122c-1.3000488,1.8599854-1.9800415,4.1199951-1.8600464,6.4400024  c0.0300293,0.9199829,0.1900024,1.8400269,0.4899902,2.75c0.4500122,1.3900146,1.1600342,2.6199951,2.0599976,3.6500244  c2.3400269,2.6699829,5.9500122,4.0299683,9.5700073,3.4199829c0.0200195-0.210022,0.0800171-0.4000244,0.1799927-0.5700073  C22.539978,23.039978,22.6400146,22.9099731,22.75,22.789978c0.1400146-0.1499634,0.3099976-0.2699585,0.4899902-0.3499756  c0.1400146-0.0700073,0.2999878-0.1300049,0.460022-0.1500244C23.7999878,22.2700195,23.9000244,22.2600098,24,22.2600098  s0.2000122,0.0100098,0.2999878,0.0299683c0.1600342,0.0200195,0.3200073,0.0800171,0.460022,0.1500244  c0.1799927,0.0800171,0.3499756,0.2000122,0.4899902,0.3499756c3.2800293-1.6300049,5.4000244-4.8399658,5.7199707-8.3800049  C31.0900269,13.0499878,30.9500122,11.6400146,30.5,10.25z"/>
    <path class="b" d="M23.7000008,22.2900009c-0.1599998,0.0199986-0.3200016,0.0799999-0.460001,0.1499996"/>
    <path class="b" d="M24.2999992,22.2900009C26,19.0400009,25.8199997,15.1899996,24,12.1499996  c-0.7000008-1.1799994-1.6499996-2.2299995-2.8299999-3.0899992C20.3999996,8.5,19.5699997,8.0600004,18.7199993,7.73  c-2.1700001-0.8200002-4.5299997-0.8699999-6.6899996-0.23C9.9200001,8.1400003,8,9.4399996,6.6100001,11.3599997  s-2.04,4.1500006-1.9900002,6.3499994c0.04,2.2600002,0.8200002,4.4800014,2.27,6.2900009  c0.5700002,0.7199993,1.2400002,1.3700008,2.02,1.9300003c1.1800003,0.8600006,2.4700003,1.4300003,3.8100004,1.7299995h0.0099993  c3.460001,0.7900009,7.1700001-0.2299995,9.7399998-2.8500004"/>
    <path class="b" d="M22.75,25.210022c0.1400146,0.1499634,0.3099976,0.2699585,0.4899902,0.3499756  c-0.539978,3.6199951-2.9400024,6.6300049-6.2000122,8.0300293h-0.0099487  c-1.2600098,0.539978-2.6400146,0.8399658-4.1000366,0.8399658c-0.960022,0-1.8800049-0.1300049-2.7600098-0.3699951  c-2.25-0.6099854-4.1900024-1.960022-5.5499878-3.7700195C3.289978,28.539978,2.5,26.3599854,2.5,24  s0.789978-4.539978,2.1199951-6.289978c1.3599854-1.8099976,3.2999878-3.1600342,5.5499878-3.7700195  c0.8800049-0.2399902,1.7999878-0.3699951,2.7600098-0.3699951c1.460022,0,2.8400269,0.2999878,4.1000366,0.8399658  c3.2599487,1.3900146,5.6699829,4.4100342,6.2099609,8.0300293C23.0599976,22.5200195,22.8900146,22.6400146,22.75,22.789978  c-0.1099854,0.1199951-0.210022,0.25-0.2800293,0.4000244c-0.0999756,0.1699829-0.1599731,0.3599854-0.1799927,0.5700073  C22.2700195,23.8400269,22.2600098,23.9199829,22.2600098,24s0.0100098,0.1599731,0.0299683,0.2399902  c0.0200195,0.210022,0.0800171,0.4000244,0.1799927,0.5700073C22.539978,24.960022,22.6400146,25.0900269,22.75,25.210022z"/>
    <path class="b" d="M24,35.8499756c-0.7000122,1.1800537-1.6500244,2.2300415-2.8300171,3.0900269  c-0.7699585,0.5599976-1.5999756,1-2.4500122,1.3300171C16.5499878,41.0900269,14.1900024,41.1400146,12.0300293,40.5  C9.9199829,39.8599854,8,38.5599976,6.6099854,36.6400146c-1.3900146-1.9200439-2.039978-4.1500244-1.9899902-6.3500366  C4.6599731,28.0300293,5.4400024,25.8099976,6.8900146,24c0.5700073-0.7199707,1.2399902-1.3699951,2.0199585-1.9299927  c1.1800537-0.8599854,2.4700317-1.4299927,3.8099976-1.7299805c3.460022-0.7900391,7.1800537,0.2299805,9.75,2.8499756  c-0.0999756,0.1699829-0.1599731,0.3599854-0.1799927,0.5700073C22.2700195,23.8400269,22.2600098,23.9199829,22.2600098,24  s0.0100098,0.1599731,0.0299683,0.2399902c0.0200195,0.210022,0.0800171,0.4000244,0.1799927,0.5700073  C22.539978,24.960022,22.6400146,25.0900269,22.75,25.210022c0.1400146,0.1499634,0.3099976,0.2699585,0.4899902,0.3499756  c0.1400146,0.0700073,0.2999878,0.1300049,0.460022,0.1500244C23.7999878,25.7299805,23.9000244,25.7399902,24,25.7399902  s0.2000122-0.0100098,0.2999878-0.0299683C26,28.960022,25.8200073,32.8099976,24,35.8499756z"/>
    <path class="b" d="M30.5,37.75c-0.2999878,0.9099731-0.710022,1.7600098-1.2199707,2.5200195  C28.0100098,42.210022,26.1400146,43.6400146,24,44.3699951c-2.0700073,0.7399902-4.3900146,0.8099976-6.6400146,0.0800171  c-2.25-0.7300415-4.0700073-2.1500244-5.3299561-3.9500122c-1.3000488-1.8599854-1.9800415-4.1199951-1.8600464-6.4400024  c0.0300293-0.9199829,0.1900024-1.8400269,0.4899902-2.75c0.4500122-1.3900146,1.1600342-2.6199951,2.0599976-3.6500244h0.0100098  c2.3300171-2.6699829,5.9400024-4.0299683,9.5599976-3.4199829c0.0200195,0.210022,0.0800171,0.4000244,0.1799927,0.5700073  C22.539978,24.960022,22.6400146,25.0900269,22.75,25.210022c0.1400146,0.1499634,0.3099976,0.2699585,0.4899902,0.3499756  c0.1400146,0.0700073,0.2999878,0.1300049,0.460022,0.1500244C23.7999878,25.7299805,23.9000244,25.7399902,24,25.7399902  s0.2000122-0.0100098,0.2999878-0.0299683c0.1600342-0.0200195,0.3200073-0.0800171,0.460022-0.1500244  c0.1799927-0.0800171,0.3499756-0.2000122,0.4899902-0.3499756c3.2800293,1.6300049,5.4000244,4.8399658,5.7199707,8.3800049  C31.0900269,34.9500122,30.9500122,36.3599854,30.5,37.75z"/>
    <path class="b" d="M35.9699707,40.5c-1.2599487,1.7999878-3.0799561,3.2199707-5.3299561,3.9500122  c-2.25,0.7299805-4.5700073,0.6599731-6.6400146-0.0800171c-2.1400146-0.7299805-4.0100098-2.1599731-5.2800293-4.0999756  C18.210022,39.5100098,17.7999878,38.6599731,17.5,37.75c-0.4500122-1.3900146-0.5900269-2.7999878-0.4699707-4.1599731h0.0099487  c0.3099976-3.5400391,2.4299927-6.75,5.710022-8.3800049c0.1400146,0.1499634,0.3099976,0.2699585,0.4899902,0.3499756  c0.1400146,0.0700073,0.2999878,0.1300049,0.460022,0.1500244C23.7999878,25.7299805,23.9000244,25.7399902,24,25.7399902  s0.2000122-0.0100098,0.2999878-0.0299683c0.1600342-0.0200195,0.3200073-0.0800171,0.460022-0.1500244  c0.1799927-0.0800171,0.3499756-0.2000122,0.4899902-0.3499756c0.1099854-0.1199951,0.210022-0.25,0.2800293-0.4000244  c0.0999756-0.1699829,0.1599731-0.3599854,0.1799927-0.5700073c3.6199951-0.6099854,7.2299805,0.75,9.5599976,3.4199829h0.0100098  c0.8999634,1.0300293,1.6099854,2.2600098,2.0599976,3.6500244c0.2999878,0.9099731,0.4599609,1.8300171,0.4899902,2.75  C37.9500122,36.3800049,37.2700195,38.6400146,35.9699707,40.5z"/>
    <path class="b" d="M43.3800049,30.289978c0.0499878,2.2000122-0.5999756,4.4299927-1.9899902,6.3500366  C40,38.5599976,38.0800171,39.8599854,35.9699707,40.5c-2.1599731,0.6400146-4.5199585,0.5900269-6.6899414-0.2299805  C28.4299927,39.9400024,27.5999756,39.5,26.8300171,38.9400024C25.6500244,38.0800171,24.7000122,37.0300293,24,35.8499756  c-1.8200073-3.039978-2-6.8899536-0.2999878-10.1399536C23.7999878,25.7299805,23.9000244,25.7399902,24,25.7399902  s0.2000122-0.0100098,0.2999878-0.0299683c0.1600342-0.0200195,0.3200073-0.0800171,0.460022-0.1500244  c0.1799927-0.0800171,0.3499756-0.2000122,0.4899902-0.3499756c0.1099854-0.1199951,0.210022-0.25,0.2800293-0.4000244  c0.0999756-0.1699829,0.1599731-0.3599854,0.1799927-0.5700073C25.7299805,24.1599731,25.7399902,24.0800171,25.7399902,24  s-0.0100098-0.1599731-0.0299683-0.2399902c-0.0200195-0.210022-0.0800171-0.4000244-0.1799927-0.5700073  c2.5699463-2.6199951,6.289978-3.6400146,9.75-2.8499756c1.3399658,0.2999878,2.6299438,0.8699951,3.8099976,1.7299805  C39.8699951,22.6300049,40.539978,23.2800293,41.1099854,24C42.5599976,25.8099976,43.3400269,28.0300293,43.3800049,30.289978z"/>
    <path class="b" d="M45.5,24c0,2.3599854-0.789978,4.539978-2.1199951,6.289978  c-1.3599854,1.8099976-3.2999878,3.1600342-5.5499878,3.7700195c-0.8800049,0.2399902-1.7999878,0.3699951-2.7600098,0.3699951  c-1.460022,0-2.8400269-0.2999878-4.1000366-0.8399658c-3.2599487-1.3900146-5.6699829-4.4100342-6.2099609-8.0300293  c0.1799927-0.0800171,0.3499756-0.2000122,0.4899902-0.3499756c0.1099854-0.1199951,0.210022-0.25,0.2800293-0.4000244  c0.0999756-0.1699829,0.1599731-0.3599854,0.1799927-0.5700073C25.7299805,24.1599731,25.7399902,24.0800171,25.7399902,24  s-0.0100098-0.1599731-0.0299683-0.2399902c-0.0200195-0.210022-0.0800171-0.4000244-0.1799927-0.5700073  C25.460022,23.039978,25.3599854,22.9099731,25.25,22.789978c-0.1400146-0.1499634-0.3099976-0.2699585-0.4899902-0.3499756  c0.539978-3.6199951,2.9500122-6.6400146,6.2099609-8.0300293c1.2600098-0.539978,2.6400146-0.8399658,4.1000366-0.8399658  c0.960022,0,1.8800049,0.1300049,2.7600098,0.3699951c2.25,0.6099854,4.1900024,1.960022,5.5499878,3.7700195  C44.710022,19.460022,45.5,21.6400146,45.5,24z"/>
    <path class="b" d="M43.3800049,17.710022C43.3400269,19.9699707,42.5599976,22.1900024,41.1099854,24  c-0.5700073,0.7199707-1.2399902,1.3699951-2.0199585,1.9299927c-1.1800537,0.8599854-2.4700317,1.4299927-3.8099976,1.7299805  h-0.0100098c-3.460022,0.7900391-7.1700439-0.2299805-9.7399902-2.8499756  c0.0999756-0.1699829,0.1599731-0.3599854,0.1799927-0.5700073C25.7299805,24.1599731,25.7399902,24.0800171,25.7399902,24  s-0.0100098-0.1599731-0.0299683-0.2399902c-0.0200195-0.210022-0.0800171-0.4000244-0.1799927-0.5700073  C25.460022,23.039978,25.3599854,22.9099731,25.25,22.789978c-0.1400146-0.1499634-0.3099976-0.2699585-0.4899902-0.3499756  c-0.1400146-0.0700073-0.2999878-0.1300049-0.460022-0.1500244C24.2000122,22.2700195,24.0999756,22.2600098,24,22.2600098  s-0.2000122,0.0100098-0.2999878,0.0299683C22,19.039978,22.1799927,15.1900024,24,12.1500244  c0.7000122-1.1800537,1.6500244-2.2300415,2.8300171-3.0900269c0.7699585-0.5599976,1.5999756-1,2.4500122-1.3300171  C31.4500122,6.9099731,33.8099976,6.8599854,35.9699707,7.5C38.0800171,8.1400146,40,9.4400024,41.3900146,11.3599854  C42.7800293,13.2800293,43.4299927,15.5100098,43.3800049,17.710022z"/>
    <path class="b" d="M37.8300171,13.9400024c-0.0300293,0.9199829-0.1900024,1.8400269-0.4899902,2.75  c-0.4500122,1.3900146-1.1600342,2.6199951-2.0599976,3.6500244c-2.3400269,2.6699829-5.9500122,4.0299683-9.5700073,3.4199829  c-0.0200195-0.210022-0.0800171-0.4000244-0.1799927-0.5700073C25.460022,23.039978,25.3599854,22.9099731,25.25,22.789978  c-0.1400146-0.1499634-0.3099976-0.2699585-0.4899902-0.3499756c-0.1400146-0.0700073-0.2999878-0.1300049-0.460022-0.1500244  C24.2000122,22.2700195,24.0999756,22.2600098,24,22.2600098s-0.2000122,0.0100098-0.2999878,0.0299683  c-0.1600342,0.0200195-0.3200073,0.0800171-0.460022,0.1500244C23.0599976,22.5200195,22.8900146,22.6400146,22.75,22.789978  c-3.2800293-1.6300049-5.4000244-4.8399658-5.7199707-8.3800049C16.9099731,13.0499878,17.0499878,11.6400146,17.5,10.25  c0.2999878-0.9099731,0.710022-1.7600098,1.2199707-2.5200195C19.9899902,5.789978,21.8599854,4.3599854,24,3.6300049  c2.0700073-0.7399902,4.3900146-0.8099976,6.6400146-0.0800171c2.25,0.7300415,4.0700073,2.1500244,5.3299561,3.9500122  C37.2700195,9.3599854,37.9500122,11.6199951,37.8300171,13.9400024z"/>
</svg>

<?xml version="1.0" encoding="UTF-8"?><svg id="Layer_2" xmlns="http://www.w3.org/2000/svg" viewBox="0 0 48 48"><defs><style>.cls-1{fill:none;stroke:#fff;stroke-linecap:round;stroke-linejoin:round;}</style></defs><path class="cls-1" d="m30.5,10.25c-.3-.91-.71-1.76-1.22-2.52-1.27-1.94-3.14-3.37-5.28-4.1-2.07-.74-4.39-.81-6.64-.08-2.25.73-4.07,2.15-5.33,3.95-1.3,1.86-1.98,4.12-1.86,6.44.03.92.19,1.84.49,2.75.45,1.39,1.16,2.62,2.06,3.65,2.34,2.67,5.95,4.03,9.57,3.42.02-.21.08-.4.18-.57.07-.15.17-.28.28-.4.14-.15.31-.27.49-.35.14-.07.3-.13.46-.15.1-.02.2-.03.3-.03s.2.01.3.03c.16.02.32.08.46.15.18.08.35.2.49.35,3.28-1.63,5.4-4.84,5.72-8.38.1201-1.36-.02-2.77-.47-4.16Z"/><path class="cls-1" d="m23.7,22.29c-.16.02-.32.08-.46.15"/><path class="cls-1" d="m24.3,22.29c1.7-3.25,1.52-7.1-.3-10.14-.7-1.18-1.65-2.23-2.83-3.09-.77-.56-1.6-1-2.45-1.33-2.17-.82-4.53-.87-6.69-.23-2.11.64-4.03,1.94-5.42,3.86s-2.04,4.15-1.99,6.35c.04,2.26.82,4.48,2.27,6.29.57.72,1.24,1.37,2.02,1.93,1.18.86,2.47,1.43,3.81,1.73h.01c3.46.79,7.17-.23,9.74-2.85"/><path class="cls-1" d="m22.75,25.21c.14.15.31.27.49.35-.54,3.62-2.94,6.63-6.2,8.03h-.0099c-1.26.54-2.64.84-4.1.84-.96,0-1.88-.13-2.76-.37-2.25-.61-4.19-1.96-5.55-3.77-1.33-1.75-2.12-3.93-2.12-6.29s.79-4.54,2.12-6.29c1.36-1.81,3.3-3.16,5.55-3.77.88-.24,1.8-.37,2.76-.37,1.46,0,2.84.3,4.1.84,3.2599,1.39,5.67,4.41,6.21,8.03-.18.08-.35.2-.49.35-.11.12-.21.25-.28.4-.1.17-.16.36-.18.57-.02.08-.03.16-.03.24s.01.16.03.24c.02.21.08.4.18.57.07.15.17.28.28.4Z"/><path class="cls-1" d="m24,35.85c-.7,1.1801-1.65,2.23-2.83,3.09-.77.56-1.6,1-2.45,1.33-2.17.82-4.53.87-6.6899.23-2.11-.64-4.03-1.94-5.42-3.86-1.39-1.92-2.04-4.15-1.99-6.35.04-2.2599.82-4.48,2.27-6.29.57-.72,1.24-1.37,2.02-1.93,1.1801-.86,2.47-1.43,3.81-1.73,3.46-.79,7.1801.23,9.75,2.85-.1.17-.16.36-.18.57-.02.08-.03.16-.03.24s.01.16.03.24c.02.21.08.4.18.57.07.15.17.28.28.4.14.15.31.27.49.35.14.07.3.13.46.15.1.02.2.03.3.03s.2-.01.3-.03c1.7,3.25,1.52,7.1-.3,10.14Z"/><path class="cls-1" d="m30.5,37.75c-.3.91-.71,1.76-1.22,2.52-1.27,1.94-3.14,3.37-5.28,4.1-2.07.74-4.39.81-6.64.08-2.25-.73-4.07-2.15-5.33-3.95-1.3-1.86-1.98-4.12-1.86-6.44.03-.92.19-1.84.49-2.75.45-1.39,1.16-2.62,2.06-3.65h.01c2.33-2.67,5.94-4.03,9.56-3.42.02.21.08.4.18.57.07.15.17.28.28.4.14.15.31.27.49.35.14.07.3.13.46.15.1.02.2.03.3.03s.2-.01.3-.03c.16-.02.32-.08.46-.15.18-.08.35-.2.49-.35,3.28,1.63,5.4,4.84,5.72,8.38.1201,1.36-.02,2.77-.47,4.16Z"/><path class="cls-1" d="m35.97,40.5c-1.2599,1.8-3.08,3.22-5.33,3.95-2.25.73-4.57.66-6.64-.08-2.14-.73-4.01-2.16-5.28-4.1-.5099-.76-.92-1.61-1.22-2.52-.45-1.39-.59-2.8-.47-4.16h.0099c.31-3.54,2.43-6.75,5.71-8.38.14.15.31.27.49.35.14.07.3.13.46.15.1.02.2.03.3.03s.2-.01.3-.03c.16-.02.32-.08.46-.15.18-.08.35-.2.49-.35.11-.12.21-.25.28-.4.1-.17.16-.36.18-.57,3.62-.61,7.23.75,9.56,3.42h.01c.9,1.03,1.61,2.26,2.06,3.65.3.91.46,1.83.49,2.75.12,2.32-.56,4.58-1.86,6.44Z"/><path class="cls-1" d="m43.38,30.29c.05,2.2-.6,4.43-1.99,6.35-1.39,1.92-3.31,3.22-5.42,3.86-2.16.64-4.52.59-6.6899-.23-.85-.33-1.6801-.77-2.45-1.33-1.18-.86-2.13-1.91-2.83-3.09-1.82-3.04-2-6.89-.3-10.14.1.02.2.03.3.03s.2-.01.3-.03c.16-.02.32-.08.46-.15.18-.08.35-.2.49-.35.11-.12.21-.25.28-.4.1-.17.16-.36.18-.57.02-.08.03-.16.03-.24s-.01-.16-.03-.24c-.02-.21-.08-.4-.18-.57,2.5699-2.62,6.29-3.64,9.75-2.85,1.34.3,2.6299.87,3.81,1.73.78.56,1.45,1.21,2.02,1.93,1.45,1.81,2.23,4.03,2.27,6.29Z"/><path class="cls-1" d="m45.5,24c0,2.36-.79,4.54-2.12,6.29-1.36,1.81-3.3,3.16-5.55,3.77-.88.24-1.8.37-2.76.37-1.46,0-2.84-.3-4.1-.84-3.2599-1.39-5.67-4.41-6.21-8.03.18-.08.35-.2.49-.35.11-.12.21-.25.28-.4.1-.17.16-.36.18-.57.02-.08.03-.16.03-.24s-.01-.16-.03-.24c-.02-.21-.08-.4-.18-.57-.07-.15-.17-.28-.28-.4-.14-.15-.31-.27-.49-.35.54-3.62,2.95-6.64,6.21-8.03,1.26-.54,2.64-.84,4.1-.84.96,0,1.88.13,2.76.37,2.25.61,4.19,1.96,5.55,3.77,1.33,1.75,2.12,3.93,2.12,6.29Z"/><path class="cls-1" d="m43.38,17.71c-.04,2.2599-.82,4.48-2.27,6.29-.57.72-1.24,1.37-2.02,1.93-1.1801.86-2.47,1.43-3.81,1.73h-.01c-3.46.79-7.17-.23-9.74-2.85.1-.17.16-.36.18-.57.02-.08.03-.16.03-.24s-.01-.16-.03-.24c-.02-.21-.08-.4-.18-.57-.07-.15-.17-.28-.28-.4-.14-.15-.31-.27-.49-.35-.14-.07-.3-.13-.46-.15-.1-.02-.2-.03-.3-.03s-.2.01-.3.03c-1.7-3.25-1.52-7.1.3-10.14.7-1.1801,1.65-2.23,2.83-3.09.77-.56,1.6-1,2.45-1.33,2.17-.82,4.53-.87,6.6899-.23,2.11.64,4.03,1.94,5.42,3.86,1.39,1.92,2.04,4.15,1.99,6.35Z"/><path class="cls-1" d="m37.83,13.94c-.03.92-.19,1.84-.49,2.75-.45,1.39-1.16,2.62-2.06,3.65-2.34,2.67-5.95,4.03-9.57,3.42-.02-.21-.08-.4-.18-.57-.07-.15-.17-.28-.28-.4-.14-.15-.31-.27-.49-.35-.14-.07-.3-.13-.46-.15-.1-.02-.2-.03-.3-.03s-.2.01-.3.03c-.16.02-.32.08-.46.15-.18.08-.35.2-.49.35-3.28-1.63-5.4-4.84-5.72-8.38-.1201-1.36.02-2.77.47-4.16.3-.91.71-1.76,1.22-2.52,1.27-1.94,3.14-3.37,5.28-4.1,2.07-.74,4.39-.81,6.64-.08,2.25.73,4.07,2.15,5.33,3.95,1.3,1.86,1.98,4.12,1.86,6.44Z"/></svg>
